!!!COM:	Busnoys, Antoine
!!!CDT:	~1430///-1492/11/06
!!!OPR:	Missa L'homme arm&eacute;
!!!ONM:	4
!!!OTL:	Sanctus
!!!AGN:	Mass; Sanctus
!!!SCT:	Bus1001d
!!!SCA:	Bus1001d
!!!voices:	4
!!!voices-OPR:	4
**kern	**kern	**kern	**kern
*staff4	*staff3	*staff2	*staff1
*Ivox	*Ivox	*Ivox	*Ivox
*I"Contratenor Bassus	*I"Tenor	*I"Contratenor Altus	*I"Superius
*I'Ct	*I'T	*I'Ct	*I'S
*>[A,B,C,D]	*>[A,B,C,D]	*>[A,B,C,D]	*>[A,B,C,D]
*>A	*>A	*>A	*>A
*clefF4	*clefGv2	*clefGv2	*clefG2
*k[b-]	*k[b-]	*k[b-]	*k[b-]
*M3/1	*M3/1	*M3/1	*M3/1
*met(O.)	*met(O.)	*met(O.)	*met(O.)
=1-	=1-	=1-	=1-
*	*rscale:1/2	*	*
0.r	0.r	0G	[0.g
.	.	1G	.
=2	=2-	=2	=2
0.r	0.r	0c	1g]
.	.	.	1.a
.	.	1c	.
.	.	.	2g
=3	=3-	=3	=3
0.r	0.r	1B-	1g
.	.	1.A	1.cc
.	.	2G	2b-
=4	=4	=4	=4
0.r	0.r	1G	1b-
.	.	1r	2cc
.	.	.	2.dd
.	.	1f	.
.	.	.	4cc
.	.	.	2a
=5	=5-	=5	=5
0.r	0.r	2.g	2g
.	.	.	2.b-
.	.	4f	.
.	.	2g	.
.	.	.	4a
.	.	2.a	2.cc
.	.	4g	4b-
.	.	2e	4a
.	.	.	4g
=6	=6-	=6	=6
0.r	0.r	1d	2f
.	.	.	2.a
.	.	1r	.
.	.	.	4g
.	.	.	2e
.	.	1B-	1d
=7	=7	=7	=7
0.r	0.r	2.c	2r
.	.	.	1e
.	.	4B-	.
.	.	2c	.
.	.	2.d	2d
.	.	.	1f
.	.	4c	.
.	.	2A	.
=8	=8-	=8	=8
0.r	0.r	2G	2.g
.	.	2.B-	.
.	.	.	4a
.	.	.	2.b-
.	.	4c	.
.	.	2.d	.
.	.	.	4cc
.	.	.	2.dd
.	.	4c	.
.	.	4B-	.
.	.	4A	4cc
=9	=9-	=9	=9
0.r	0.r	2G	2b-
.	.	2.d	2.a
.	.	4B-	4g
.	.	2c	2.a
.	.	1A	.
.	.	.	4e
.	.	.	2f#i
=10	=10	=10	=10
0.r	0.r	2r	2g
.	.	1d	2b-
.	.	.	1a
.	.	2c	.
.	.	2B-	2r
.	.	4A	[2dd
.	.	4G	.
=11	=11-	=11	=11
0.r	0.r	2F	2dd]
.	.	2A	2cc
.	.	2G	2b-
.	.	2.B-	4a
.	.	.	4g
.	.	.	2f
.	.	4A	.
.	.	2c	2a
=12	=12-	=12	=12
0.r	0.r	2B-	2g
.	.	2.d	2.b-
.	.	4c	4a
.	.	2B-	1g
.	.	1A	.
.	.	.	2f#i
=13	=13	=13	=13
0G	0G	1G	0.g
.	.	1r	.
[1E	1G	1r	.
=14	=14-	=14	=14
1E]	0c	1g	0.r
0F	.	2f	.
.	.	2.a	.
.	1c	.	.
.	.	4g	.
.	.	4f	.
.	.	4e	.
=15	=15-	=15	=15
2G	1B-	1d	1r
4F	.	.	.
4G	.	.	.
2A	0A	2c	1r
1F	.	2.f	.
.	.	.	1a
.	.	4e	.
2E	.	2c	.
=16	=16	=16	=16
1G	1G	2B-	1b-
.	.	2.d	.
1F	1r	.	2a
.	.	4c	.
.	.	2A	2cc
1G	1r	2G	2b-
.	.	[2B-	2g
=17	=17-	=17	=17
1D	0.r	4B-]	2f
.	.	4A	.
.	.	2F	1a
1E	.	1G	.
.	.	.	1g
1D	.	1A	.
.	.	.	2f#i
=18	=18-	=18	=18
2r	1d	1G	1.g
1G	.	.	.
.	1d	2r	.
2F	.	1d	2a
1E-i	1G	.	2b-
.	.	2c	4a
.	.	.	4g
=19	=19	=19	=19
1.D	1r	2.d	1f
.	.	4c	.
.	1d	2B-	1r
1G	.	2G	.
.	1d	1A	1r
2F#i	.	.	.
=20	=20-	=20	=20
1G	1d	1G	1b-
1E	0c	2r	2.cc
.	.	2g	.
.	.	.	4b-
1F	.	2f	2.a
.	.	[2d	.
.	.	.	4g
=21	=21-	=21	=21
1G	1B-	4d]	2g
.	.	4c	.
.	.	2e	4f
.	.	.	4g
0D	0A	2f	4a
.	.	.	4g
.	.	2.d	4f#i
.	.	.	4e
.	.	.	2.f#i
.	.	4c	.
.	.	4B-	.
.	.	4A	4e
=22	=22	=22	=22
1d	0.G	1.B-	1g
1d	.	.	2r
.	.	2G	1g
1d	.	2.B-	.
.	.	.	2a
.	.	4c	.
=23	=23-	=23	=23
2G	0.r	1d	2.b-
2.B-	.	.	.
.	.	.	4cc
.	.	1d	2.dd
4A	.	.	.
2G	.	.	.
.	.	.	4cc
2F	.	1d	2a
[2G	.	.	[2b-
=24	=24-	=24	=24
4G]	1d	2G	2b-]
4F	.	.	.
2D	.	1d	2a
2F	1d	.	2d
2G	.	2B-	1g
1D	1d	1A	.
.	.	.	2f#i
=25	=25	=25	=25
2r	0.G	2B-	1.g
2G	.	2.d	.
2.B-	.	.	.
.	.	4c	.
.	.	2.B-	2.b-
4c	.	.	.
1d	.	.	.
.	.	4G	4a
.	.	2B-	2g
=26	=26-	=26	=26
2c	0.r	2A	2a
1A	.	2.a	1cc
.	.	4g	.
2B-	.	2.g	2b-
2c	.	.	1a
.	.	4f#i	.
2d	.	4f#i	.
.	.	4e	.
=27	=27-	=27	=27
1.G	0g	1g	1g
.	.	1r	1r
1B-	.	.	.
.	1g	1r	1r
2c	.	.	.
=28	=28	=28	=28
2A	0f	1r	1r
1d	.	.	.
.	.	1r	1r
2B-	.	.	.
1A	1f	1c	1a
=29	=29-	=29	=29
1.G	0g	1d	2b-
.	.	.	1dd
.	.	1e	.
2A	.	.	2cc
2B-	1g	2d	2b-
2c	.	2e	4a
.	.	.	4g
=30	=30-	=30	=30
2.d	0d	[1f	2f
.	.	.	2.a
4c	.	.	.
2B-	.	3f]	.
.	.	.	4g
.	.	3e	.
2G	.	.	1g
.	.	3d	.
1A	1r	3%2c	.
.	.	.	2f#i
.	.	3B-	.
=31	=31	=31	=31
1.G	0g	2d	1.g
.	.	2.e	.
.	.	4d	.
2F	.	1d	2a
1E-i	1g	.	2b-
.	.	2c	4a
.	.	.	4g
=32	=32-	=32	=32
1D	0f	2r	2a
.	.	2d	1dd
1r	.	2B-	.
.	.	2c	2cc
1D	1f	1d	1a
=33	=33-	=33	=33
2.E	0g	1G	2r
.	.	.	2.g
4F	.	.	.
2.G	.	2r	.
.	.	.	4a
.	.	1G	1b-
4A	.	.	.
2.B-	1g	.	.
.	.	2A	2g
4c	.	.	.
=34	=34	=34	=34
2d	0.d	2B-	2f
2.B-	.	2.d	2.b-
4A	.	4c	4cc
1G	.	2B-	2.dd
.	.	1A	.
.	.	.	4cc
2F	.	.	2a
=35	=35-	=35	=35
2G	0.r	2G	2b-
4F	.	1d	4a
4E	.	.	4g
2D	.	.	2f
2G	.	2e-	2g
2F	.	2f	2a
[2G	.	[2d	[2b-
=36	=36-	=36	=36
2G]	0.r	4d]	4b-]
.	.	4c	4a
1C	.	2.e-i	2.cc
.	.	4d	4b-
2G	.	4c	4a
.	.	4B-	4g
1D	.	1A	2.f#i
.	.	.	4e
=37	=37	=37	=37
!	!LO:N:vis=00	!	!
2r	0.dl	0.Gl	0.gl
2B-	.	.	.
1B-	.	.	.
1Gl	.	.	.
!!LO:LB:i:g=z
*	*rscale:1	*	*
=38||	=38||	=38||	=38||
*>B	*>B	*>B	*>B
*clefF4	*clefGv2	*clefGv2	*clefG2
*k[b-]	*k[b-]	*k[b-]	*k[b-]
*M3/1	*M3/1	*M3/1	*M3/1
*met(O.)	*met(O.)	*met(O.)	*met(O.)
!!section: Pleni
!!!OMD: Pleni
0.r	0.r	1d	1r
.	.	2c	1r
.	.	1B-	.
.	.	.	1dd
.	.	2G	.
=39	=39	=39	=39
0.r	0.r	2A	2cc
.	.	2B-	1b-
.	.	1G	.
.	.	.	2g
.	.	2F	2a
.	.	2G	2b-
=40	=40	=40	=40
0.r	0.r	2B-	2g
.	.	1A	2f
.	.	.	2.a
.	.	1d	.
.	.	.	4g
.	.	.	1e
.	.	2c	.
=41	=41	=41	=41
0.r	0.r	2d	1d
.	.	2.a	.
.	.	.	2r
.	.	4g	.
.	.	2f	2a
.	.	1e	2b-
.	.	.	2cc
=42	=42	=42	=42
0.r	0.r	2d	2dd
.	.	2e	2g
.	.	2f	2a
.	.	2g	2b-
.	.	2c	2cc
.	.	2d	2f
=43	=43	=43	=43
0.r	0.r	2e	2g
.	.	2f	2a
.	.	2B-	2.b-
.	.	2c	.
.	.	.	4a
.	.	2d	2b-
.	.	4c	[2cc
.	.	4B-	.
=44	=44	=44	=44
0.r	0.r	2A	4cc]
.	.	.	4b-
.	.	2c	1a
.	.	1B-	.
.	.	.	2g
.	.	2A	1a
.	.	[2d	.
=45	=45	=45	=45
0.r	0.r	4d]	1r
.	.	4c	.
.	.	2A	.
.	.	1B-	1dd
.	.	1A	2cc
.	.	.	2a
=46	=46	=46	=46
0.r	0.r	2G	1b-
.	.	1d	.
.	.	.	1a
.	.	2c	.
.	.	2B-	2g
.	.	4A	[2dd
.	.	4G	.
=47	=47	=47	=47
0.r	0.r	2.F#i	2dd]
.	.	.	2cc
.	.	4E	.
.	.	1G	2b-
.	.	.	4a
.	.	.	4g
.	.	2r	2.f
.	.	2d	.
.	.	.	4e
=48	=48	=48	=48
0.r	0.r	2e	2g
.	.	2f	2a
.	.	2g	2b-
.	.	2.e	2.cc
.	.	4d	4b-
.	.	4c	4a
.	.	4B-	4g
=49	=49	=49	=49
0.r	0.r	2A	1f
.	.	2d	.
.	.	2e	1g
.	.	1g	.
.	.	.	1a
.	.	2f#i	.
=50	=50	=50	=50
2.G	0.r	1g	0.g
4A	.	.	.
2B-	.	1r	.
1c	.	.	.
.	.	2e	.
4B-	.	2f	.
4A	.	.	.
=51	=51	=51	=51
2.G	0.r	2g	0.r
.	.	2d	.
4F	.	.	.
2G	.	4e	.
.	.	4d	.
2E	.	4c	.
.	.	4B-	.
2F	.	2A	.
[2G	.	[2B-	.
=52	=52	=52	=52
2G]	0.r	2B-]	0.r
2B-	.	4A	.
.	.	4G	.
2A	.	2F	.
2G	.	1G	.
1A	.	.	.
.	.	2F#i	.
=53	=53	=53	=53
1G	0.r	2G	0.r
.	.	2B-	.
2E	.	2c	.
2D	.	2.d	.
2F	.	.	.
.	.	4c	.
2G	.	2B-	.
=54	=54	=54	=54
2A	0.r	2A	0.r
2G	.	2B-	.
2F	.	2c	.
2D	.	2.d	.
2.E-	.	.	.
.	.	4B-	.
.	.	2c	.
4D	.	.	.
=55	=55	=55	=55
2BB-	0.r	2d	0.r
2C	.	2e	.
2D	.	2f	.
2F	.	4e	.
.	.	4d	.
1E	.	2.c#i	.
.	.	4Bni	.
=56	=56	=56	=56
2r	0.r	0d	0.r
1D	.	.	.
2F	.	.	.
2E	.	2r	.
2G	.	[2d	.
=57	=57	=57	=57
2F	0.r	2d]	0.r
2.A	.	2f	.
.	.	2e	.
4G	.	.	.
2E	.	2g	.
2D	.	2f	.
[2F	.	[2a	.
=58	=58	=58	=58
4F]	0.r	4a]	0.r
4E	.	4g	.
2C	.	2e	.
2D	.	2f	.
2F	.	4e	.
.	.	4d	.
2E	.	2c	.
2D	.	2d	.
=59	=59	=59	=59
2.A	0.r	2f	0.r
.	.	2.e	.
4G	.	.	.
2A	.	.	.
.	.	4d	.
2F	.	1d	.
1E	.	.	.
.	.	2c#i	.
=60	=60	=60	=60
1D	0.r	1d	1f
2E	.	1r	2g
2D	.	.	1a
2F	.	1r	.
2G	.	.	2b-
=61	=61	=61	=61
2A	0.r	1A	2cc
4G	.	.	4b-
4F	.	.	4a
2E	.	2B-	2g
2F	.	1d	2f
2G	.	.	1e
2A	.	2c#i	.
=62	=62	=62	=62
1D	0.r	2.d	2r
.	.	.	1a
.	.	4c	.
1r	.	2A	.
.	.	2.c	2g
1r	.	.	2a
.	.	4B-	.
.	.	2A	2cc
=63	=63	=63	=63
1r	0.r	2G	2b-
.	.	2F	2a
1r	.	2G	2b-
.	.	2B-	4a
.	.	.	4g
2r	.	2A	2.f
[2D	.	[2d	.
.	.	.	4g
=64	=64	=64	=64
4D]	0.r	2d]	2b-
4E	.	.	.
2F	.	2c	2.a
2G	.	2B-	.
.	.	.	4g
2E	.	2G	2.g
1D	.	1A	.
.	.	.	4f#i
.	.	.	4f#i
.	.	.	4e
=65	=65	=65	=65
0.G	0.r	[0.Gl	[0.gl
=66	=66	=66	=66
0.dl	0.r	0.G]	0.g]
!!LO:LB:i:g=z
=67||	=67||	=67||	=67||
*>C	*>C	*>C	*>C
*clefF4	*clefGv2	*clefGv2	*clefG2
*k[b-]	*k[b-]	*k[b-]	*k[b-]
*M2/1	*M2/1	*M2/1	*M2/1
*met(O2)	*met(C.)	*met(O2)	*met(O2)
*	*rscale:1/4	*	*
!!section: Osanna
!!!OMD: Osanna
!	!LO:N:vis=1	!	!
0G	0r	0g	0g
=68-	=68-	=68-	=68-
1d	0ryy	1f	1a
!LO:N:vis=1.	!	!LO:N:vis=0	!
[y1B-	.	[y1g	1g
=69-	=69-	=69-	=69-
!	!LO:N:vis=1	!	!
2B-]yy	0r	1g]yy	1b-
2G	.	.	.
1A	.	1e	1cc
=70	=70-	=70	=70
1B-	0ryy	1d	1dd
!	!	!	!LO:N:vis=1.
1c	.	1c	[y1ee-i
=71-	=71-	=71-	=71-
0d	0r	0f	2ee-]yy
.	.	.	2dd
!	!	!	!LO:N:vis=1.
.	.	.	[y1dd
=72-	=72-	=72-	=72-
0r	0g	0e	2dd]yy
.	.	.	4cc
.	.	.	4b-
.	.	.	4cc
.	.	.	4b-
.	.	.	4a
.	.	.	4g
=73	=73	=73	=73
!	!LO:N:vis=1	!	!
0d	[y0a	1r	0f
.	.	1d	.
=74-	=74-	=74-	=74-
1c	0a]yy	1e	1r
1A	.	2e	1cc
!	!	!LO:N:vis=1	!
.	.	[y2f	.
=75-	=75-	=75-	=75-
1B-	0g	2f]yy	1dd
.	.	2d	.
1c	.	1c	1ee
=76	=76-	=76	=76
1.d	0f	2r	1a
.	.	1f	.
!	!	!	!LO:N:vis=1.
.	.	.	[y1dd
2c	.	2g	.
=77-	=77-	=77-	=77-
!	!LO:N:vis=1	!	!
2.A	[y0e	2a	2dd]yy
.	.	4g	2cc
4B-	.	4f	.
!	!	!	!LO:N:vis=1.
2c	.	2e	[y1ee
!LO:N:vis=1	!	!	!
[y2A	.	4d	.
.	.	4c	.
=78-	=78-	=78-	=78-
2A]yy	0e]yy	1B-	2ee]yy
2G	.	.	2bni
1A	.	1A	1cc#i
=79	=79	=79	=79
!	!LO:N:vis=1.	!	!
1.D	[y0d	2r	0dd
.	.	2d	.
.	.	2f	.
2E	.	2g	.
=80-	=80-	=80-	=80-
1F	0d_yy	1a	1r
!LO:N:vis=0	!	!LO:N:vis=1.	!
[y1G	.	[y1d	1b-
=81-	=81-	=81-	=81-
1G]yy	0d]yy	2d]yy	1g
.	.	2B-	.
1F	.	2A	1a
.	.	[2d	.
=82	=82-	=82	=82
0E	0r	2d]	[1b-
.	.	4c	.
.	.	4B-	.
.	.	1c	3b-]V
.	.	.	3a
.	.	.	3gZ
=83-	=83-	=83-	=83-
!	!LO:N:vis=1	!	!
1D	0r	2r	2f
.	.	2.f	2.a
1r	.	.	.
.	.	4e	4g
!	!	!LO:N:vis=1	!
.	.	[y2d	2f
=84-	=84-	=84-	=84-
1A	0ryy	2d]yy	1e
.	.	2c	.
2.F	.	2.d	2r
.	.	.	[2a
4G	.	4e	.
=85	=85	=85	=85
!	!LO:N:vis=1	!	!
2A	0r	2f	2a]
2.B-	.	1g	2g
.	.	.	2b-
4G	.	.	.
2A	.	2e	2cc
=86-	=86-	=86-	=86-
2.F	0ryy	2d	1dd
.	.	2f	.
4D	.	.	.
2E	.	2g	2b-
!LO:N:vis=2.	!	!LO:N:vis=1	!
[y2F	.	[y2a	2a
=87-	=87-	=87-	=87-
!	!LO:N:vis=1	!	!
4F]yy	0r	2a]yy	2cc
4E	.	.	.
2D	.	2f	2dd
2.C	.	2.e	2.ee
4D	.	4f	4dd
=88	=88-	=88	=88
2E	0ryy	2g	2b-
1F	.	1a	1a
!	!	!LO:N:vis=1	!
2G	.	[y2d	2b-
=89-	=89-	=89-	=89-
!	!LO:N:vis=1	!	!
2F	0r	2d]yy	2a
2D	.	2f	2.dd
2E	.	2e	.
.	.	.	4cc
!LO:N:vis=2.	!	!LO:N:vis=2.	!LO:N:vis=2.
[y2G	.	[y2d	[y2b-
=90-	=90-	=90-	=90-
4G]yy	0ryy	4d]yy	4b-]yy
4F	.	4c	4a
2G	.	2B-	1g
1D	.	1A	.
.	.	.	2f#i
=91	=91	=91	=91
!	!LO:N:vis=1	!	!
1G	[y0G	1r	0g
1r	.	1G	.
=92-	=92-	=92-	=92-
1.d	0G]yy	1.B-	0r
2c	.	2c	.
=93-	=93-	=93-	=93-
2.B-	0G	3%2dV	0g
.	.	3e-iZ	.
4A	.	.	.
2B-	.	3dV	.
.	.	3c	.
4A	.	.	.
.	.	3B-Z	.
4G	.	.	.
=94	=94-	=94	=94
!	!LO:N:vis=1	!	!LO:N:vis=0.
1.F	[y0c	1A	[y0a
.	.	2r	.
!LO:N:vis=1	!	!LO:N:vis=1	!
[y2A	.	[y2F	.
=95-	=95-	=95-	=95-
2A]yy	0c]yy	2F]yy	1a]yy
2G	.	2G	.
2.F	.	2A	1a
!	!	!LO:N:vis=2.	!
.	.	[y2c	.
4E	.	.	.
=96-	=96-	=96-	=96-
2F	0c	4c]yy	0a
.	.	4B-	.
1G	.	2G	.
.	.	1A	.
2F#i	.	.	.
=97	=97	=97	=97
0G	0B-	2G	[1b-
.	.	2.g	.
.	.	.	3b-]V
.	.	4f	.
.	.	.	3a
.	.	4e	.
.	.	.	3gZ
.	.	4d	.
=98-	=98-	=98-	=98-
!	!LO:N:vis=1	!	!
0r	[y0A	2c	2f
.	.	2.f	2.a
.	.	4g	4b-
!	!	!LO:N:vis=2.	!LO:N:vis=2
.	.	[y2a	[y2cc
=99-	=99-	=99-	=99-
0c	0A]yy	4a]yy	2cc]yy
.	.	4g	.
.	.	2e	2dd
.	.	1f	2cc
.	.	.	4b-
.	.	.	4a
=100	=100-	=100	=100
!	!LO:N:vis=1.	!	!
0d	[y0G	2g	1.b-
.	.	1g	.
.	.	4f	2cc
.	.	4e	.
=101-	=101-	=101-	=101-
1.B-	0G_yy	0d	1dd
.	.	.	1dd
2c	.	.	.
=102-	=102-	=102-	=102-
1d	0G]yy	1r	1g
1d	.	[1B-	[1b-
=103	=103	=103	=103
!	!LO:N:vis=1	!	!
1G	0r	2B-]	2b-]
.	.	2c	2a
!	!	!	!LO:N:vis=1.
1F	.	1d	[y1a
=104-	=104-	=104-	=104-
1G	0ryy	1e-	2a]yy
.	.	.	2g
!	!	!LO:N:vis=0	!LO:N:vis=1.
1B-	.	[y1d	[y1g
=105-	=105-	=105-	=105-
!	!LO:N:vis=1	!	!
0A	0r	1d]yy	2g]yy
.	.	.	2f#i
.	.	1c	2f#i
.	.	.	2e
=106	=106-	=106	=106
0G	0ryy	1.B-	[1g
.	.	.	3g]V
.	.	.	3f
.	.	4A	.
.	.	.	3eZ
.	.	4G	.
=107-	=107-	=107-	=107-
!	!LO:N:vis=1	!	!
1F	0r	1A	1d
1D	.	2B-	3eV
.	.	.	3%2fZ
!	!	!LO:N:vis=1	!
.	.	[y2d	.
=108-	=108-	=108-	=108-
0E	0ryy	2d]yy	[1g
.	.	4c	.
.	.	4B-	.
.	.	4c	3g]V
.	.	4B-	.
.	.	.	3f
.	.	4A	.
.	.	.	3eZ
.	.	4G	.
=109	=109	=109	=109
1.D	0d	1.F	0f
2E	.	2G	.
=110-	=110-	=110-	=110-
2F	0d	2A	0r
2.G	.	2.B-	.
4A	.	4c	.
!LO:N:vis=2.	!	!LO:N:vis=2.	!
[y2B-	.	[y2d	.
=111-	=111-	=111-	=111-
4B-]yy	0G	4d]yy	0g
4A	.	4c	.
4G	.	2.e-i	.
4F	.	.	.
1E-i	.	.	.
.	.	4B-	.
.	.	2c	.
=112	=112-	=112	=112
1D	0r	1d	1f
1G	.	2r	1b-
!	!	!LO:N:vis=1	!
.	.	[y2d	.
=113-	=113-	=113-	=113-
1F	0d	2d]yy	1a
.	.	2c	.
1G	.	2B-	2g
.	.	4A	2b-
.	.	4G	.
=114-	=114-	=114-	=114-
0D	0d	2F	2a
.	.	2G	1g
.	.	1A	.
.	.	.	2f
=115	=115	=115	=115
1r	0d	0G	2.g
.	.	.	4a
1G	.	.	2b-
.	.	.	4a
.	.	.	4b-
=116-	=116-	=116-	=116-
!	!LO:N:vis=1	!	!
1.A	[y0c	1r	1.cc
!	!	!LO:N:vis=1.	!
.	.	[y1c	.
4G	.	.	4b-
4F	.	.	4a
=117-	=117-	=117-	=117-
1E	0c]yy	2c]yy	1g
.	.	2B-	.
1F	.	2.A	1a
.	.	4G	.
=118	=118-	=118	=118
2G	0B-	1.G	2.b-
2.E	.	.	.
.	.	.	4cc
.	.	.	2b-
4F	.	.	.
!	!	!LO:N:vis=1	!
2G	.	[y2d	4a
.	.	.	4g
=119-	=119-	=119-	=119-
!	!LO:N:vis=1	!	!
2D	[y0A	2d]yy	2f
1F	.	2c	2.a
.	.	2d	.
.	.	.	4b-
!	!	!	!LO:N:vis=2.
4E	.	2f	[y2cc
4D	.	.	.
=120-	=120-	=120-	=120-
2.C	0A]yy	1e	4cc]yy
.	.	.	4b-
.	.	.	4a
4BB-	.	.	4g
1D	.	1d	2.f#i
.	.	.	4e
=121	=121	=121	=121
!	!LO:N:vis=00	!	!
1r	[0Gl	0e-i	[0gl
1G	.	.	.
=122-	=122-	=122-	=122-
0Gl	0G]	0dl	0g]
!!LO:LB:i:g=z
!!LO:TX:rj:Y=22:i:t=fine
*	*rscale:1	*	*
=123||	=123||	=123||	=123||
*>D	*>D	*>D	*>D
*clefF4	*clefGv2	*clefGv2	*clefG2
*k[b-]	*k[b-]	*k[b-]	*k[b-]
*M2/1	*M2/1	*M2/1	*M2/1
*met(O2)	*met(O2)	*met(O2)	*met(O2)
!!section: Benedictus
!!!OMD: Benedictus
0r	0r	0G	1.g
.	.	.	2a
=124.	=124.	=124.	=124.
0r	0r	1d	1b-
.	.	1e	[1cc
=125.	=125.	=125.	=125.
0r	0r	0f	2cc]
.	.	.	2dd
.	.	.	2cc
.	.	.	4b-
.	.	.	4a
=126	=126	=126	=126
0r	0r	1g	2b-
.	.	.	2g
.	.	2f	2a
.	.	[2g	2b-
=127.	=127.	=127.	=127.
0r	0r	2g]	1g
.	.	2e	.
.	.	1d	2r
.	.	.	[2f
=128.	=128.	=128.	=128.
0r	0r	1r	4f]
.	.	.	4g
.	.	.	2.a
.	.	1c	.
.	.	.	4g
.	.	.	2e
=129	=129	=129	=129
0r	0r	2B-	2d
.	.	1c	2c
.	.	.	2e
.	.	2A	2f
=130.	=130.	=130.	=130.
0r	0r	2G	1g
.	.	2.c	.
.	.	.	2e
.	.	4B-	.
.	.	[2d	2d
=131.	=131.	=131.	=131.
0r	0r	4d]	2f
.	.	4c	.
.	.	2B-	2g
.	.	2.A	2.a
.	.	4B-	4g
=132	=132	=132	=132
0r	0r	2c	4f
.	.	.	4e
.	.	1d	2d
.	.	.	2r
.	.	2F	2a
=133.	=133.	=133.	=133.
0r	0r	2G	2b-
.	.	2B-	1g
.	.	1A	.
.	.	.	2f#i
=134.	=134.	=134.	=134.
0r	0r	1G	2g
.	.	.	2d
.	.	2r	2g
.	.	[2d	2b-
=135	=135	=135	=135
0r	0r	2d]	1a
.	.	2c	.
.	.	2B-	2r
.	.	2G	[2dd
=136.	=136.	=136.	=136.
0r	0r	1A	2dd]
.	.	.	2cc
.	.	2G	2b-
.	.	[2c	2g
=137.	=137.	=137.	=137.
0r	0r	2c]	1a
.	.	2d	.
.	.	1e	2g
.	.	.	[2cc
=138	=138	=138	=138
0r	0r	1f	2cc]
.	.	.	2a
.	.	2g	2b-
.	.	4f	4a
.	.	4e	4g
=139.	=139.	=139.	=139.
0r	0r	2d	2f
.	.	4c	2e
.	.	4B-	.
.	.	2A	2f
.	.	[2B-	[2g
=140.	=140.	=140.	=140.
0r	0r	2B-]	2g]
.	.	4A	2b-
.	.	4G	.
.	.	2F	2a
.	.	2A	2cc
=141	=141	=141	=141
1r	0r	2G	2b-
.	.	2B-	1g
1c	.	1A	.
.	.	.	2f#
=142.	=142.	=142.	=142.
2B-	0r	2G	1g
2G	.	2B-	.
2A	.	2c	1r
[2B-	.	[2d	.
=143.	=143.	=143.	=143.
2B-]	0r	4d]	0r
.	.	4e-i	.
4A	.	4d	.
4G	.	8cL	.
.	.	8B-J	.
2.F	.	2.A	.
4E	.	4G	.
=144	=144	=144	=144
2G	0r	1G	0r
2B-	.	.	.
2c	.	2A	.
[2d	.	[2B-	.
=145.	=145.	=145.	=145.
4d]	0r	2B-]	1r
4e-i	.	.	.
4d	.	4A	.
8cL	.	4G	.
8B-J	.	.	.
2.A	.	2.F#i	1cc
4G	.	4E	.
=146.	=146.	=146.	=146.
1G	0r	0G	2b-
.	.	.	2.dd
2r	.	.	.
.	.	.	4cc
2G	.	.	[2b-
=147	=147	=147	=147
2B-	0r	0r	4b-]
.	.	.	4a
2c	.	.	2g
2.d	.	.	2f
.	.	.	[2a
4c	.	.	.
=148.	=148.	=148.	=148.
2.A	0r	0r	4a]
.	.	.	4g
.	.	.	2.e
4B-	.	.	.
2.c	.	.	.
.	.	.	4f
.	.	.	[2g
4B-	.	.	.
=149.	=149.	=149.	=149.
2.G	0r	0r	4g]
.	.	.	4f
.	.	.	2d
4F	.	.	.
2D	.	.	2f
2C	.	.	[2e
=150	=150	=150	=150
2D	0r	1r	2e]
2F	.	.	1d
1E	.	1g	.
.	.	.	2c#i
=151.	=151.	=151.	=151.
2r	0r	1.f	1d
2.D	.	.	.
.	.	.	1r
4E	.	.	.
4F	.	4e	.
4G	.	4d	.
=152.	=152.	=152.	=152.
2.A	0r	2.c	0r
4B-	.	4d	.
2c	.	2e	.
2d	.	2f	.
=153	=153	=153	=153
2e	0r	2g	0r
2.f	.	2.a	.
4e	.	4g	.
4d	.	2b-	.
4c	.	.	.
=154.	=154.	=154.	=154.
2.d	0r	2a	1r
.	.	1g	.
8cL	.	.	.
8B-J	.	.	.
1A	.	.	1a
.	.	2f#i	.
=155.	=155.	=155.	=155.
0G	0r	1.g	2.b-
.	.	.	4cc
.	.	.	2b-
.	.	4f	4a
.	.	4e	4g
=156	=156	=156	=156
0r	0r	2.d	2f
.	.	.	2a
.	.	4c	.
.	.	2B-	2g
.	.	4A	2b-
.	.	4G	.
=157.	=157.	=157.	=157.
2r	0r	2F	2cc
1F	.	1c	2.a
.	.	.	4g
2G	.	2B-	[2b-
=158.	=158.	=158.	=158.
2E	0r	2G	4b-]
.	.	.	4cc
2G	.	2B-	4b-
.	.	.	8aL
.	.	.	8gJ
1D	.	1A	2.f#i
.	.	.	4e
=159	=159	=159	=159
0Gl	0r	0Gl	0gl
!!LO:TX:i:Y=40:rj:t=Osanna ut supra
=||	=||	=||	=||
*-	*-	*-	*-
!!!RDF**kern: l=long note in original notation
!!!RDF**kern: i=editorial accidental
!!!RDF**kern: V=start of tuplet marker
!!!RDF**kern: Z=end of tuplet marker
!!!ENC:	Will Watson 
!!!END:	2012/11/20/
!!!EED:	Jesse Rodin
!!!EEV:	2012/12/21/
!!!ONB:	Translated from MusicXML and edited on 2012/12/21/ by Craig Sapp
!!muse2ps: T^@{OPR}^u^@{ONM}{. }@{OTL}^C^@{COM}^i2I150v85,85,85,150Q16
